X:4
T:Hora
R:hora
S:Youtube "Hora Nr.172"
O:Romania
Z:id:hn-hora-4
M:C|
L:1/8
K:Ephr ^g =f
|: d^c=cB ABAG | GEFD EGB2 | d^c=cB ABAG | GEFD E4 :|
|: EEB,E EEEE | FEDF EEEB, | EFGA BBAG | GEFD EGB2 |
   EEB,E EEEE | FEDF EEEB, | EFGA BBAG | GEFD E4 :|
|: AGAB ccBA | AGAB cABc | ddcB BAAG | GEFD EGB2 |
   AGAB ccBA | AGAB cABc | ddcB BAAG | GEFD E4 :|
|: dcBA ABAG | GEFD EGB2 | dcBA ABAG | GEFD E4 :|

